src/icon/brand/forex/icon_forex_m_white.svg

<?xml version="1.0" encoding="UTF-8"?>
<svg width="24px" height="24px" viewBox="0 0 24 24" version="1.1" xmlns="http://www.w3.org/2000/svg" xmlns:xlink="http://www.w3.org/1999/xlink">
    <!-- Generator: Sketch 49.3 (51167) - http://www.bohemiancoding.com/sketch -->
    <title>icon_forex_m_white</title>
    <desc>Created with Sketch.</desc>
    <defs></defs>
    <g id="Page-1" stroke="none" stroke-width="1" fill="none" fill-rule="evenodd">
        <g id="forex_white" transform="translate(-148.000000, -1.000000)" fill="#FFFFFF">
            <g id="icon_forex_m_white" transform="translate(148.000000, 1.000000)">
                <polygon id="Fill-1" points="6.48392019 5.53846154 6.44845823 5.53846154 3.69230769 14.7692308 9.23076923 14.7692308"></polygon>
                <g id="Group-8">
                    <path d="M10.7468757,19.3268 L1.68201081,19.3268 C1.53282162,19.7488 6.48648649e-05,24.0001333 6.48648649e-05,24.0001333 L12.4255784,24.0001333 C12.4255784,24.0001333 10.8973622,19.7488 10.7468757,19.3268" id="Fill-2"></path>
                    <path d="M20.4924324,9.0638 L16.1121081,9.0638 C16.1108108,7.4338 16.1095135,5.86313333 16.1069189,4.50113333 L21.8163243,4.50113333 C22.0336216,4.50113333 22.2703784,4.3198 22.3456216,4.09713333 L23.5903784,0.4218 C23.6669189,0.199133333 23.5527568,0.0184666667 23.3354595,0.0184666667 L6.21437838,0.0184666667 L6.21437838,0.0624666667 L6.21827027,0.0624666667 C8.57545946,0.0624666667 9.34216216,1.82313333 9.93827027,3.53113333 C10.2463784,4.4138 15.8539459,21.3558 16.0777297,22.0024667 C16.104973,22.0791333 16.1134054,18.1224667 16.1140541,13.5464667 L18.9726486,13.5464667 C19.1899459,13.5464667 19.4267027,13.3651333 19.5032432,13.1418 L20.748,9.46713333 C20.8238919,9.24446667 20.7084324,9.0638 20.4924324,9.0638" id="Fill-5"></path>
                </g>
            </g>
        </g>
    </g>
</svg>

<svg width="24" height="24" viewBox="0 0 24 24" xmlns="http://www.w3.org/2000/svg"><g fill="#FFF" fill-rule="evenodd"><path d="M6.484 5.538h-.036L3.692 14.77h5.539zM10.747 19.327H1.682C1.532 19.749 0 24 0 24h12.426l-1.68-4.673M20.492 9.064h-4.38c-.001-1.63-.002-3.2-.005-4.563h5.71c.217 0 .453-.181.529-.404L23.59.422c.077-.223-.037-.404-.255-.404H6.215v.044h.003c2.357 0 3.124 1.761 3.72 3.47.308.882 5.916 17.824 6.14 18.47.027.077.035-3.88.036-8.456h2.859c.217 0 .454-.18.53-.404l1.245-3.675c.076-.223-.04-.403-.256-.403"/></g></svg>
